X:1
T:Charles John Forbes Esq. of Newe's
T:Charles John Forbes Esq. of Newe's
T:Alexander Walker
C:Alexander Walker
L:1/8
M:4/4
K:A
V:1 treble 
V:1
 C | A,>EC>A E>A,C>B, | E>A (d/c/).B/.A/ F<BB>c | A,>EC>A E<A,C>c | d/c/B/A/ F/f/e/d/ c<A A :| g | %6
 a>ec>A c/d/e a2 | f/g/a/g/ f/e/d/c/ f<BB>g | a>ec>A (3GBG A2 | A/G/F/E D/E/F/ D/ C<A,A,>g | %10
 a>ec>A c/d/e a2 | (3fga (3efc f<BB>d | c<ea>c d<Bb>a | (g<b)e>g a<A A || %14

